X: 80
T:House of Hamill, The
M:C|
L:1/8
C:Ed Reavy
R:Reel
K:EDor
D[|EBBA BFAF|EBBc dAFD|EBBA (3Bcd ef|gfec dAFD|!
EBBA BFAF|EBBc dAFD|EBBA (3Bcd ef|gfec dAFA|]!
BE~E2 dE~E2|BE~E2 dAFA|BE~E2 (3Bcd ef|gfec dAFD|!
BE~E2 dE~E2|BE~E2 dAFA|BAGF GBef|gfec dAFA|]!
B2^GB eBGB|BA^GB ADFA|B2^GB eBGB|gfec dAFA|!
B2^GB eBGB|BA^GB ADFA|BAGF GBef|gfec dAFD|]!
